X: 37617
T: Snake In The Cupboard
R: jig
M: 6/8
K: Bminor
B2f fed|efe edc|B2f fef|g3 fed|
B2f fed|efe edc|efe edc|a3 fed:|
ABc dcd|edc dcA|Bcd ede|fed edc|
cde fed|gfe fed|cde cde|cde afd:|
FGF FDD|FGF FDD|EFE EFG|AGF FDD|
FGF FDD|FGF FDD|EFE EFG|FGA Bcf:|

